X:112
T: AUF GEBET UNS DAS PFINGSTEI
N: Z0112
O: Europa, Mitteleuropa, Deutschland
R: Sagen - Lied, Romanze
M: 2/4
L: 1/8
K: G
D | GA_Bc | d2c2 |
=f2ed | e^cd
_e | dc_BA | _BAG2 |
G2GF | GA_B2 |
dcBA | _BAG

@@@ Tune index: 9870
